build/img/0-common/logo.svg

<svg width="58" height="55" viewBox="0 0 58 55" fill="none" xmlns="http://www.w3.org/2000/svg">
<path d="M52.2201 13.7175V12.6004C52.2201 9.171 49.83 6.31318 46.6344 5.58573C45.9069 2.39017 43.0231 0 39.6197 0C36.9438 0 34.6056 1.48087 33.3585 3.6632C31.5659 3.87105 29.9551 4.75437 28.812 6.05338C27.6689 4.75437 26.0841 3.87105 24.2655 3.6632C23.0184 1.48087 20.6802 0 18.0042 0C14.5749 0 11.7171 2.39017 10.9896 5.58573C7.79405 6.31318 5.40387 9.19698 5.40387 12.6004V13.7175C2.31223 14.5229 0 17.3547 0 20.7062V28.812C0 32.787 3.22154 36.0085 7.1965 36.0085C8.52149 36.0085 9.76854 35.6448 10.8337 35.0213C11.2234 38.6065 14.2891 41.4124 18.0042 41.4124C19.3033 41.4124 20.5503 41.0487 21.6155 40.4511V47.8035C21.6155 49.778 20.0047 51.4147 18.0042 51.4147C17.017 51.4147 16.2116 52.2201 16.2116 53.2074C16.2116 54.1946 17.017 55 18.0042 55C21.9792 55 25.2008 51.7785 25.2008 47.8035V35.8007C25.8503 35.6448 26.4478 35.385 26.9934 35.0472V53.2074C26.9934 54.1946 27.7988 55 28.786 55C29.7733 55 30.5786 54.1946 30.5786 53.2074V35.0472C31.1242 35.359 31.7478 35.6188 32.3713 35.8007V47.8035C32.3713 51.7785 35.5928 55 39.5678 55C40.555 55 41.3604 54.1946 41.3604 53.2074C41.3604 52.2201 40.555 51.4147 39.5678 51.4147C37.5933 51.4147 35.9565 49.804 35.9565 47.8035V40.4511C37.0217 41.0746 38.2428 41.4124 39.5678 41.4124C43.257 41.4124 46.3226 38.6065 46.7383 35.0213C47.8035 35.6448 49.0505 36.0085 50.3755 36.0085C54.3505 36.0085 57.572 32.787 57.572 28.812V20.7062C57.624 17.3547 55.3377 14.5229 52.2201 13.7175ZM39.6197 3.58526C41.5942 3.58526 43.231 5.19603 43.231 7.1965V12.6004V17.1729C42.6854 16.8611 42.0619 16.6013 41.4384 16.4195V7.1965C41.4384 6.20926 40.633 5.40387 39.6457 5.40387C38.6585 5.40387 37.8531 6.20926 37.8531 7.1965V16.4195C37.2036 16.5753 36.606 16.8351 36.0605 17.1729V10.8077V7.1965C36.0085 5.19603 37.6193 3.58526 39.6197 3.58526ZM18.0042 3.58526C19.9787 3.58526 21.6155 5.19603 21.6155 7.1965V17.1729C21.0699 16.8611 20.4464 16.6013 19.8229 16.4195V12.6004V7.1965C19.8229 6.20926 19.0175 5.40387 18.0302 5.40387C17.043 5.40387 16.2376 6.20926 16.2376 7.1965V12.6004V18.0043V23.4081V28.3184C15.1724 27.6949 14.445 26.5257 14.445 25.2008V23.4081V20.7062V12.6004V7.1965C14.393 5.19603 16.0298 3.58526 18.0042 3.58526ZM7.1965 32.3973C5.22201 32.3973 3.58526 30.7865 3.58526 28.786V20.6802C3.58526 19.3552 4.31271 18.1861 5.37789 17.5626V20.6802V25.9022V28.786C5.37789 29.7733 6.18328 30.5786 7.17052 30.5786C8.15777 30.5786 8.96316 29.7733 8.96316 28.786V25.9022V20.6802V12.5744C8.96316 11.2494 9.6906 10.0803 10.7558 9.45678V12.5744V20.6802V23.3821V25.1748V28.786C10.8077 30.7865 9.19698 32.3973 7.1965 32.3973ZM18.0042 37.8011C16.0298 37.8011 14.393 36.1904 14.393 34.1899V31.41C14.9386 31.7218 15.5621 31.9816 16.1856 32.1634V34.1899C16.1856 35.1771 16.991 35.9825 17.9783 35.9825C18.9655 35.9825 19.7709 35.1771 19.7709 34.1899V30.5786V23.3821V20.2645C20.8361 20.8881 21.5635 22.0572 21.5635 23.3821V34.1899C21.6155 36.1904 20.0047 37.8011 18.0042 37.8011ZM25.2008 31.9296V23.4081V7.69013C26.2659 8.31365 26.9934 9.48276 26.9934 10.8077V28.812C27.0194 30.137 26.2919 31.3061 25.2008 31.9296ZM43.231 34.2159C43.231 36.1904 41.6202 37.8271 39.6197 37.8271C38.1649 37.8271 36.9178 36.9438 36.3462 35.6967C36.9178 35.5149 37.4634 35.2551 37.983 34.9433C38.2688 35.5668 38.8923 36.0085 39.6197 36.0085C40.607 36.0085 41.4124 35.2031 41.4124 34.2159V23.4081C41.4124 22.4209 40.607 21.6155 39.6197 21.6155C38.6325 21.6155 37.8271 22.4209 37.8271 23.4081V28.812C37.8271 30.7865 36.2163 32.4232 34.2159 32.4232C32.2154 32.4232 30.6046 30.8125 30.6046 28.812V10.8077C30.6046 9.48276 31.3321 8.31365 32.3973 7.69013V10.8077V25.2267V28.838C32.3973 29.8252 33.2026 30.6306 34.1899 30.6306C35.1771 30.6306 35.9825 29.8252 35.9825 28.838V25.2267V23.4341C35.9825 21.4596 37.5933 19.8229 39.5938 19.8229C41.5683 19.8229 43.205 21.4336 43.205 23.4341V25.2267V28.838V30.6306V34.2159H43.231ZM54.0387 28.812C54.0387 30.7865 52.428 32.4232 50.4275 32.4232C48.427 32.4232 46.8162 30.8125 46.8162 28.812V25.2008V23.4081V20.7062V12.6004V9.48276C47.8814 10.1063 48.6089 11.2754 48.6089 12.6004V28.812C48.6089 29.7992 49.4143 30.6046 50.4015 30.6046C51.3888 30.6046 52.1941 29.7992 52.1941 28.812V17.5886C53.2593 18.2121 53.9868 19.3812 53.9868 20.7062V28.812H54.0387Z" fill="url(#paint0_linear)"/>
<defs>
<linearGradient id="paint0_linear" x1="0.0036111" y1="55.1855" x2="55.4896" y2="-0.300572" gradientUnits="userSpaceOnUse">
<stop stop-color="#1258E6"/>
<stop offset="0.5" stop-color="#2999D3"/>
<stop offset="1" stop-color="#1EF39C"/>
</linearGradient>
</defs>
</svg>

<svg width="58" height="55" fill="none" xmlns="http://www.w3.org/2000/svg"><path d="M52.22 13.717V12.6c0-3.429-2.39-6.287-5.586-7.014A7.213 7.213 0 0039.62 0c-2.676 0-5.014 1.48-6.261 3.663a7.173 7.173 0 00-4.547 2.39 7.109 7.109 0 00-4.547-2.39C23.018 1.481 20.68 0 18.005 0a7.191 7.191 0 00-7.015 5.586A7.213 7.213 0 005.404 12.6v1.117C2.312 14.523 0 17.355 0 20.707v8.105a7.196 7.196 0 0010.834 6.21c.39 3.584 3.455 6.39 7.17 6.39 1.3 0 2.546-.363 3.611-.96v7.352a3.62 3.62 0 01-3.61 3.61c-.988 0-1.793.806-1.793 1.793 0 .988.805 1.793 1.792 1.793a7.196 7.196 0 007.197-7.197V35.801a6.1 6.1 0 001.792-.754v18.16c0 .988.806 1.793 1.793 1.793.987 0 1.793-.805 1.793-1.793v-18.16c.545.312 1.169.572 1.792.754v12.002A7.196 7.196 0 0039.568 55c.987 0 1.792-.805 1.792-1.793 0-.987-.805-1.792-1.792-1.792a3.62 3.62 0 01-3.611-3.611V40.45a7.078 7.078 0 003.61.961c3.69 0 6.756-2.806 7.171-6.39a7.196 7.196 0 0010.834-6.21v-8.106c.052-3.351-2.234-6.183-5.352-6.989zM39.62 3.585a3.62 3.62 0 013.611 3.612V17.172a8.428 8.428 0 00-1.793-.753V7.195c0-.987-.805-1.792-1.792-1.792-.988 0-1.793.805-1.793 1.793v9.223a6.095 6.095 0 00-1.793.753V7.197c-.052-2.001 1.56-3.612 3.56-3.612zm-21.616 0a3.62 3.62 0 013.611 3.612v9.976a8.428 8.428 0 00-1.792-.753V7.197c0-.988-.806-1.793-1.793-1.793-.987 0-1.792.805-1.792 1.793v21.121a3.624 3.624 0 01-1.793-3.117V7.197c-.052-2.001 1.585-3.612 3.56-3.612zM7.196 32.397a3.62 3.62 0 01-3.61-3.611V20.68c0-1.325.727-2.494 1.792-3.117v11.223c0 .987.805 1.793 1.793 1.793.987 0 1.792-.806 1.792-1.793V12.574c0-1.325.728-2.494 1.793-3.117V28.786c.052 2-1.559 3.611-3.56 3.611zm10.808 5.404a3.62 3.62 0 01-3.611-3.611v-2.78c.546.312 1.17.572 1.793.753v2.027c0 .987.805 1.793 1.792 1.793s1.793-.806 1.793-1.793V20.265a3.624 3.624 0 011.793 3.117V34.19c.052 2-1.56 3.611-3.56 3.611zm7.197-5.871V7.69a3.624 3.624 0 011.792 3.118v18.004c.026 1.325-.701 2.494-1.792 3.118zm18.03 2.286a3.62 3.62 0 01-3.611 3.611c-1.455 0-2.702-.883-3.274-2.13a7.766 7.766 0 001.637-.754c.286.624.91 1.066 1.637 1.066.987 0 1.792-.806 1.792-1.793V23.408c0-.987-.805-1.793-1.792-1.793s-1.793.806-1.793 1.793v5.404a3.62 3.62 0 01-3.611 3.611c-2 0-3.611-1.61-3.611-3.611V10.808c0-1.325.727-2.494 1.792-3.118v21.148c0 .987.806 1.793 1.793 1.793.987 0 1.793-.806 1.793-1.793v-5.404a3.62 3.62 0 013.61-3.611 3.62 3.62 0 013.612 3.611v10.782h.026zm10.808-5.404a3.62 3.62 0 01-3.611 3.611c-2.001 0-3.612-1.61-3.612-3.611V9.483A3.624 3.624 0 0148.61 12.6v16.212c0 .987.805 1.793 1.792 1.793.988 0 1.793-.806 1.793-1.793V17.589a3.624 3.624 0 011.793 3.117v8.106h.052z" fill="url(#paint0_linear)"/><defs><linearGradient id="paint0_linear" x1=".004" y1="55.185" x2="55.49" y2="-.301" gradientUnits="userSpaceOnUse"><stop stop-color="#1258E6"/><stop offset=".5" stop-color="#2999D3"/><stop offset="1" stop-color="#1EF39C"/></linearGradient></defs></svg>
